public/assets/images/feature/06.svg

<svg width="56" height="56" viewBox="0 0 56 56" fill="none" xmlns="http://www.w3.org/2000/svg">
<path d="M54.7818 19.9225C54.7818 23.6529 53.6483 27.23 51.5038 30.2669C49.8219 32.6488 47.6217 34.5598 45.0672 35.8776L45.2788 35.9143C45.755 35.9966 46.0742 36.4494 45.9919 36.9255C45.9183 37.3513 45.5485 37.6516 45.1308 37.6516C45.0813 37.6516 45.0311 37.6474 44.9806 37.6387L41.7867 37.0862C41.4997 37.0366 41.2561 36.8473 41.1372 36.5815C41.0182 36.3156 41.0392 36.0079 41.1935 35.7608L42.7462 33.2729C43.0023 32.863 43.5418 32.7379 43.9517 32.9937C44.3617 33.2497 44.4867 33.7893 44.2309 34.1993L44.1047 34.4016C49.507 31.6765 53.032 26.0605 53.032 19.9225C53.032 19.4393 53.4237 19.0475 53.907 19.0475C54.3902 19.0475 54.7818 19.4393 54.7818 19.9225ZM19.7495 20.7975C20.2327 20.7975 20.6245 20.4058 20.6245 19.9225C20.6245 13.7622 24.1437 8.16255 29.5541 5.43966L29.4254 5.64572C29.1696 6.05566 29.2946 6.59542 29.7046 6.85125C29.8486 6.94116 30.0087 6.98403 30.167 6.98403C30.4589 6.98403 30.7442 6.83802 30.9102 6.57213L32.4629 4.08417C32.617 3.83709 32.6382 3.52942 32.5192 3.26353C32.4002 2.99753 32.1569 2.80842 31.8697 2.75877L28.6759 2.20631C28.2005 2.12352 27.7469 2.44311 27.6646 2.91944C27.5822 3.39566 27.9015 3.84836 28.3777 3.93072L28.5901 3.96747C22.6968 7.01684 18.8747 13.1651 18.8747 19.9224C18.8745 20.4058 19.2662 20.7975 19.7495 20.7975ZM36.8282 3.71875C42.9871 3.71875 48.5882 7.23844 51.311 12.6485L51.1049 12.5198C50.6949 12.2641 50.1553 12.389 49.8993 12.799C49.6435 13.2089 49.7685 13.7487 50.1785 14.0045L52.6664 15.5572C52.8074 15.6452 52.9683 15.6898 53.1296 15.6898C53.251 15.6898 53.373 15.6646 53.4871 15.6135C53.7531 15.4945 53.9422 15.251 53.9918 14.964L54.5443 11.7701C54.6266 11.2938 54.3074 10.8411 53.8312 10.7588C53.356 10.6761 52.9021 10.9956 52.8199 11.4719L52.7831 11.6844C49.7335 5.79141 43.5839 1.96875 36.8282 1.96875C36.3449 1.96875 35.9532 2.36053 35.9532 2.84375C35.9532 3.32697 36.3449 3.71875 36.8282 3.71875ZM23.757 27.0461C24.0128 26.6362 23.8878 26.0963 23.4778 25.8406L20.9898 24.288C20.7427 24.1339 20.4351 24.1126 20.169 24.2317C19.9031 24.3507 19.714 24.5942 19.6644 24.8812L19.112 28.075C19.0297 28.5513 19.3489 29.004 19.8252 29.0863C19.8756 29.0951 19.9258 29.0992 19.9753 29.0992C20.393 29.0992 20.7628 28.799 20.8364 28.3732L20.8729 28.1629C23.9206 34.0592 30.0567 37.8762 36.8282 37.8762C37.3114 37.8762 37.7032 37.4845 37.7032 37.0012C37.7032 36.518 37.3114 36.1262 36.8282 36.1262C30.6543 36.1262 25.066 32.6105 22.3449 27.1963L22.5514 27.3252C22.9615 27.5811 23.5012 27.4561 23.757 27.0461ZM50.8437 43.7497C51.3876 45.6565 50.2791 47.8718 48.5182 48.3973L29.4546 54.0888C28.7612 54.2957 28.0636 54.3985 27.372 54.3986C26.118 54.3986 24.8832 54.0606 23.7239 53.3912L13.021 47.2118L11.3186 47.6679L11.7892 49.4862C12.0999 50.687 11.3757 51.9168 10.1749 52.2274L7.26125 52.9814C7.07444 53.0296 6.885 53.0536 6.69665 53.0536C6.30028 53.0536 5.90883 52.9476 5.55719 52.7405C5.03853 52.4351 4.67026 51.9473 4.52009 51.3671L0.603482 36.2318C0.292748 35.031 1.01692 33.8014 2.21775 33.4906L5.1315 32.7366C6.33244 32.426 7.56192 33.15 7.87265 34.3509L8.11623 35.292L15.8192 33.2155C17.835 32.6722 20.182 32.3025 22.3064 33.6806C22.8307 34.0207 23.4398 34.4453 24.0848 34.8949C25.9395 36.1876 28.2479 37.7966 30.7109 38.9569C30.7466 38.9736 30.7811 38.9928 30.8141 39.0143C32.4479 40.0739 32.9957 42.1714 32.0612 43.7897C31.8881 44.0894 31.6873 44.3521 31.463 44.5761C31.9302 44.5821 32.3995 44.5186 32.8791 44.3881L43.3034 41.5522C49.2565 39.9331 50.58 42.8248 50.8437 43.7497ZM10.0948 49.9245L6.17844 34.7892C6.12101 34.5673 5.91222 34.4155 5.6904 34.4155C5.65048 34.4155 5.61001 34.4205 5.56976 34.4309L2.65601 35.185C2.39395 35.2528 2.22989 35.5315 2.2977 35.7935L6.21431 50.9289C6.24734 51.0566 6.32937 51.1645 6.4452 51.2327C6.56114 51.301 6.69512 51.3204 6.82287 51.2873L9.73651 50.5333C9.99858 50.4655 10.1626 50.1867 10.0948 49.9245ZM21.8517 41.9524C21.4332 41.7108 21.2897 41.1756 21.5313 40.7571C21.773 40.3387 22.3077 40.1953 22.7267 40.4367C23.3319 40.7862 26.9676 42.9565 28.3642 43.6383C29.0817 43.8776 29.977 43.8997 30.5455 42.9146C31.0136 42.1041 30.7379 41.0805 29.9066 40.5122C27.3327 39.2919 24.9784 37.6508 23.084 36.3304C22.4238 35.8703 21.8537 35.4729 21.354 35.1488C19.8105 34.1474 18.0007 34.4399 16.2745 34.9052L8.55461 36.9863L10.8801 45.9736L12.9181 45.4276C13.1421 45.3674 13.3811 45.3988 13.582 45.5151L24.599 51.8757C25.9899 52.6787 27.4552 52.8593 28.9539 52.4117L48.0174 46.7203C48.8636 46.4678 49.4406 45.2107 49.1607 44.2295C48.7534 42.8017 46.7357 42.4319 43.7626 43.2409L33.3383 46.0767C31.7281 46.5146 30.1598 46.3764 28.5443 45.6543C28.2506 45.5231 27.966 45.3902 27.6889 45.256M4.71379 35.7805C4.20083 35.7205 3.7362 36.0875 3.67615 36.6005C3.61611 37.1135 3.98317 37.578 4.49614 37.6381C5.00911 37.6982 5.47362 37.3311 5.53378 36.8181C5.59383 36.3052 5.22665 35.8407 4.71379 35.7805ZM32.0545 7.85105C32.3105 7.59522 32.6974 7.52314 33.0284 7.67014L33.7289 7.98142C34.0778 7.79898 34.4415 7.64827 34.8166 7.53036L35.0918 6.81548C35.2218 6.47773 35.5464 6.25483 35.9084 6.25483H37.7478C38.1098 6.25483 38.4343 6.47773 38.5644 6.81548L38.8396 7.53036C39.2148 7.64827 39.5784 7.79898 39.9273 7.98142L40.6277 7.67014C40.9587 7.52347 41.3456 7.59522 41.6017 7.85105L42.9024 9.15173C43.1583 9.40778 43.2302 9.79486 43.0833 10.1256L42.7722 10.8257C42.9547 11.1747 43.1055 11.5387 43.2234 11.914L43.938 12.1891C44.2757 12.319 44.4986 12.6436 44.4986 13.0057V14.845C44.4986 15.2071 44.2757 15.5316 43.938 15.6616L43.2231 15.9368C43.1053 16.312 42.9545 16.6755 42.7721 17.0244L43.0833 17.7251C43.2302 18.0558 43.1583 18.4429 42.9024 18.6989L41.6018 19.9995C41.3459 20.2556 40.9588 20.3277 40.6279 20.1806L39.9276 19.8695C39.5785 20.052 39.2146 20.2028 38.8395 20.3207L38.5644 21.0351C38.4344 21.373 38.1098 21.5959 37.7478 21.5959H35.9084C35.5464 21.5959 35.2219 21.373 35.0918 21.0352L34.8166 20.3203C34.4415 20.2024 34.0779 20.0517 33.729 19.8694L33.0284 20.1806C32.6974 20.3277 32.3105 20.2556 32.0545 19.9997L30.7538 18.699C30.4979 18.4429 30.426 18.0558 30.5729 17.7251L30.884 17.0249C30.7015 16.6759 30.5508 16.312 30.4329 15.9367L29.7183 15.6616C29.3805 15.5317 29.1576 15.2071 29.1576 14.845V13.0057C29.1576 12.6436 29.3805 12.3191 29.7182 12.1891L30.433 11.9139C30.5509 11.5387 30.7016 11.1751 30.8841 10.826L30.5729 10.1256C30.426 9.79486 30.4979 9.40778 30.7538 9.15173L32.0545 7.85105ZM32.4161 9.96439L32.6623 10.5188C32.7793 10.7825 32.759 11.087 32.6076 11.3328C32.3321 11.7801 32.131 12.2652 32.0096 12.7749C31.9429 13.0554 31.7421 13.2852 31.4728 13.3888L30.9075 13.6065V14.2442L31.4726 14.4618C31.742 14.5654 31.9428 14.7952 32.0095 15.0758C32.1308 15.5855 32.3321 16.0709 32.6076 16.5183C32.7589 16.7639 32.7792 17.0684 32.6622 17.3321L32.4161 17.8862L32.8671 18.3372L33.4216 18.091C33.685 17.9738 33.9895 17.9942 34.2354 18.1455C34.6829 18.421 35.1681 18.6221 35.6775 18.7435C35.9582 18.8102 36.1879 19.0111 36.2915 19.2803L36.5091 19.8458H37.1469L37.3644 19.2806C37.468 19.0112 37.6979 18.8103 37.9786 18.7436C38.4879 18.6225 38.9733 18.4214 39.421 18.1456C39.667 17.9943 39.9714 17.9739 40.2349 18.0911L40.789 18.3372L41.24 17.8862L40.9937 17.3317C40.8767 17.068 40.897 16.7636 41.0483 16.5178C41.3238 16.0703 41.5249 15.5852 41.6462 15.0757C41.713 14.7952 41.9139 14.5654 42.183 14.4618L42.7485 14.2441V13.6064L42.1834 13.3888C41.9141 13.2852 41.7133 13.0554 41.6466 12.7748C41.5253 12.265 41.324 11.7797 41.0485 11.3323C40.8971 11.0866 40.8768 10.7821 40.9938 10.5184L41.2399 9.96428L40.789 9.51333L40.2346 9.75964C39.9708 9.87645 39.6663 9.85655 39.4206 9.70495C38.9733 9.42944 38.4881 9.22841 37.9785 9.107C37.6978 9.04028 37.4681 8.83936 37.3645 8.57019L37.1469 8.00472H36.5091L36.2915 8.57019C36.1879 8.83936 35.9582 9.04028 35.6775 9.107C35.1679 9.2283 34.6828 9.42944 34.2355 9.70495C33.9897 9.85633 33.685 9.87667 33.4216 9.75964L32.867 9.51333L32.4161 9.96439ZM32.7453 13.9255C32.7453 11.6743 34.5769 9.84266 36.8282 9.84266C39.0794 9.84266 40.9109 11.6743 40.9109 13.9255C40.9109 16.1768 39.0794 18.0083 36.8282 18.0083C34.5769 18.0083 32.7453 16.1768 32.7453 13.9255ZM34.4953 13.9255C34.4953 15.2119 35.5418 16.2583 36.8282 16.2583C38.1145 16.2583 39.1609 15.2119 39.1609 13.9255C39.1609 12.6392 38.1145 11.5927 36.8282 11.5927C35.5418 11.5927 34.4953 12.6392 34.4953 13.9255ZM26.8664 32.1423C26.3832 32.1423 25.9914 31.7505 25.9914 31.2673V22.2806C25.9914 21.7973 26.3832 21.4056 26.8664 21.4056H31.3592C31.8424 21.4056 32.2342 21.7973 32.2342 22.2806V31.2673C32.2342 31.7505 31.8424 32.1423 31.3592 32.1423H26.8664ZM27.7414 30.3923H30.4842V23.1556H27.7414V30.3923ZM39.1333 33.236H34.6405C34.1573 33.236 33.7655 32.8442 33.7655 32.361V23.3744C33.7655 22.8912 34.1573 22.4994 34.6405 22.4994H39.1333C39.6166 22.4994 40.0083 22.8912 40.0083 23.3744V32.361C40.0083 32.8442 39.6166 33.236 39.1333 33.236ZM38.2583 24.2494H35.5155V31.486H38.2583V24.2494ZM46.7898 21.4056C47.273 21.4056 47.6648 21.7973 47.6648 22.2806V31.2673C47.6648 31.7505 47.273 32.1423 46.7898 32.1423H42.297C41.8138 32.1423 41.422 31.7505 41.422 31.2673V22.2806C41.422 21.7973 41.8138 21.4056 42.297 21.4056H46.7898ZM45.9148 23.1556H43.172V30.3923H45.9148V23.1556Z" fill="#0F62FE"/>
</svg>

<svg xmlns="http://www.w3.org/2000/svg" width="56" height="56" fill="none" viewBox="0 0 56 56"><path fill="#0f62fe" d="M54.782 19.923c0 3.73-1.134 7.307-3.278 10.344a17.9 17.9 0 0 1-6.437 5.61l.212.037a.875.875 0 1 1-.298 1.725l-3.194-.553a.875.875 0 0 1-.593-1.325l1.552-2.488a.875.875 0 0 1 1.485.926l-.126.203c5.402-2.726 8.927-8.341 8.927-14.48a.875.875 0 1 1 1.75 0m-35.032.875a.875.875 0 0 0 .875-.875c0-6.16 3.519-11.76 8.93-14.483l-.13.206a.875.875 0 0 0 1.485.926l1.553-2.488a.875.875 0 0 0-.593-1.325l-3.194-.553a.875.875 0 1 0-.298 1.725l.212.036c-5.893 3.05-9.715 9.198-9.715 15.955 0 .484.391.875.875.875m17.078-17.08c6.16 0 11.76 3.52 14.483 8.93l-.206-.128a.875.875 0 0 0-.926 1.485l2.487 1.552a.875.875 0 0 0 1.326-.593l.552-3.194a.875.875 0 1 0-1.724-.298l-.037.212c-3.05-5.893-9.2-9.715-15.955-9.715a.875.875 0 1 0 0 1.75m-13.071 23.33a.875.875 0 0 0-.28-1.205l-2.487-1.553a.875.875 0 0 0-1.326.593l-.552 3.194a.875.875 0 1 0 1.724.298l.037-.21a17.99 17.99 0 0 0 15.955 9.713.875.875 0 1 0 0-1.75 16.23 16.23 0 0 1-14.483-8.93l.206.13c.41.255.95.13 1.206-.28M50.844 43.75c.544 1.907-.565 4.122-2.326 4.647L29.455 54.09a7.3 7.3 0 0 1-2.083.31c-1.254 0-2.489-.338-3.648-1.008l-10.703-6.18-1.702.457.47 1.818a2.25 2.25 0 0 1-1.614 2.741l-2.914.754a2.24 2.24 0 0 1-1.704-.24 2.23 2.23 0 0 1-1.037-1.374L.603 36.232a2.253 2.253 0 0 1 1.615-2.741l2.914-.754a2.25 2.25 0 0 1 2.74 1.614l.244.941 7.703-2.077c2.016-.543 4.363-.913 6.487.466.525.34 1.134.764 1.779 1.214 1.854 1.293 4.163 2.902 6.626 4.062q.054.026.103.057c1.634 1.06 2.182 3.157 1.247 4.776q-.26.45-.598.786.699.009 1.416-.188l10.424-2.836c5.954-1.619 7.277 1.273 7.54 2.198m-40.75 6.175L6.179 34.789a.51.51 0 0 0-.608-.358l-2.914.754a.506.506 0 0 0-.358.608L6.214 50.93a.5.5 0 0 0 .231.304c.116.068.25.087.378.054l2.914-.754a.506.506 0 0 0 .358-.608m11.758-7.973a.875.875 0 0 1 .875-1.515c.605.35 4.24 2.52 5.637 3.201.718.24 1.613.262 2.182-.723.468-.81.192-1.834-.64-2.403-2.573-1.22-4.928-2.861-6.822-4.182-.66-.46-1.23-.857-1.73-1.181-1.543-1.002-3.353-.71-5.08-.244l-7.72 2.081 2.326 8.988 2.038-.546a.87.87 0 0 1 .664.087l11.017 6.36c1.39.804 2.856.984 4.355.537l19.063-5.692c.847-.252 1.424-1.51 1.144-2.49-.408-1.428-2.425-1.798-5.398-.99l-10.425 2.837c-1.61.438-3.178.3-4.794-.423a31 31 0 0 1-.855-.398M4.714 35.781a.935.935 0 1 0-.218 1.857.935.935 0 0 0 .218-1.857m27.34-27.93a.875.875 0 0 1 .974-.18l.7.31a6.7 6.7 0 0 1 1.089-.45l.275-.716a.875.875 0 0 1 .816-.56h1.84c.362 0 .686.223.816.56l.276.715q.563.178 1.087.451l.7-.31a.88.88 0 0 1 .975.18l1.3 1.3a.875.875 0 0 1 .181.975l-.31.7q.273.524.45 1.088l.715.275c.338.13.56.455.56.817v1.839a.875.875 0 0 1-.56.817l-.715.275a6.6 6.6 0 0 1-.45 1.087l.31.701a.875.875 0 0 1-.18.974l-1.301 1.3a.87.87 0 0 1-.974.182l-.7-.312q-.525.275-1.088.452l-.276.714a.875.875 0 0 1-.816.56h-1.84a.875.875 0 0 1-.816-.56l-.275-.715a6.7 6.7 0 0 1-1.088-.45l-.7.31a.875.875 0 0 1-.975-.18l-1.3-1.301a.875.875 0 0 1-.181-.974l.311-.7a6.7 6.7 0 0 1-.451-1.088l-.715-.275a.875.875 0 0 1-.56-.817v-1.84c0-.361.223-.686.56-.816l.715-.275a6.7 6.7 0 0 1 .451-1.088l-.311-.7a.875.875 0 0 1 .18-.974zm.362 2.113.246.555a.88.88 0 0 1-.054.814 4.9 4.9 0 0 0-.598 1.442.88.88 0 0 1-.537.614l-.566.218v.637l.566.218c.269.103.47.333.537.614.12.51.322.995.598 1.442a.88.88 0 0 1 .054.814l-.246.554.451.451.555-.246a.88.88 0 0 1 .813.054c.448.276.933.477 1.443.599.28.066.51.267.614.536l.217.566h.638l.217-.565a.88.88 0 0 1 .615-.537 5 5 0 0 0 1.442-.598.88.88 0 0 1 .814-.055l.554.246.451-.45-.246-.555a.88.88 0 0 1 .054-.814 4.9 4.9 0 0 0 .598-1.442.88.88 0 0 1 .537-.614l.566-.218v-.638l-.566-.217a.88.88 0 0 1-.536-.614 4.9 4.9 0 0 0-.599-1.443.88.88 0 0 1-.054-.814l.246-.554-.451-.45-.554.246a.88.88 0 0 1-.814-.055 4.9 4.9 0 0 0-1.443-.598.88.88 0 0 1-.614-.537l-.217-.565h-.638l-.218.565a.88.88 0 0 1-.613.537c-.51.121-.995.322-1.442.598a.88.88 0 0 1-.814.055l-.555-.247zm.33 3.961a4.09 4.09 0 0 1 4.082-4.082 4.087 4.087 0 0 1 4.083 4.082 4.087 4.087 0 0 1-4.083 4.083 4.087 4.087 0 0 1-4.083-4.082m1.75 0a2.335 2.335 0 0 0 2.332 2.333 2.335 2.335 0 0 0 2.333-2.332 2.335 2.335 0 0 0-2.333-2.333 2.335 2.335 0 0 0-2.333 2.332m-7.63 18.217a.875.875 0 0 1-.875-.875v-8.986c0-.484.392-.875.875-.875h4.493c.483 0 .875.391.875.875v8.986a.875.875 0 0 1-.875.875zm.875-1.75h2.743v-7.236h-2.743zm11.392 2.844h-4.492a.875.875 0 0 1-.875-.875v-8.987c0-.483.391-.875.875-.875h4.492c.484 0 .875.392.875.875v8.987a.875.875 0 0 1-.875.875m-.875-8.987h-2.742v7.237h2.742zm8.532-2.843c.483 0 .875.391.875.875v8.986a.875.875 0 0 1-.875.875h-4.493a.875.875 0 0 1-.875-.875v-8.986c0-.484.392-.875.875-.875zm-.875 1.75H43.17v7.236h2.743z"/></svg>
